X: 23473
T: Leverette, The
R: hornpipe
M: 4/4
K: Dmajor
|:A/B/c|d2 BA JF3E|DE ((3FED) B,EDB,|~A,3B, DEFA|GFED ((3EFE) DE|
FDdD cDBD|F2ED B,EDB,|A,B,DE FAEG|F2D2D2:|
|:FA|B2 AB c2BA|FEDF A2FE|DEFA BcdB|c2A2A3B|
=cBAF GBAF|DE ((3FED) B,EDB,|A,B,DE FAEG|F2D2D2:|

